assets/googledocs/mono.svg

<svg viewBox="0 0 24 24" xmlns="http://www.w3.org/2000/svg"><path d="m14.727 6.727h-.727v-6.727h-9.09c-.905 0-1.637.732-1.637 1.636v20.728c0 .904.732 1.636 1.636 1.636h14.182c.904 0 1.636-.732 1.636-1.636v-15.637zm-.545 10.455h-7.092v-1.364h7.09v1.364zm2.727-3.273h-9.818v-1.364h9.818zm0-3.273h-9.818v-1.363h9.818zm-2.182-4.636h6l-6-6z"/></svg>

<svg xmlns="http://www.w3.org/2000/svg" viewBox="0 0 24 24"><path d="M14.727 6.727H14V0H4.91c-.905 0-1.637.732-1.637 1.636v20.728c0 .904.732 1.636 1.636 1.636h14.182c.904 0 1.636-.732 1.636-1.636V6.727zm-.545 10.455H7.09v-1.364h7.09v1.364zm2.727-3.273H7.091v-1.364h9.818zm0-3.273H7.091V9.273h9.818zM14.727 6h6l-6-6z"/></svg>
